!!!COA: Jaspart
!!!COS: Japart, Jean
!!!ONB: Doubtful: Gaspar van Weerbeke
!!!OTL: J'ay pris amours / De tous biens plaine
!!!AGN: Song; Chanson
!!!SCT: Gas0509
!!!SCA: Gas0509
!!!voices: 4
**kern	**kern	**kern	**kern	**text
*part4	*part3	*part2	*part1	*part1
*staff4	*staff3	*staff2	*staff1	*staff1
*I"Bassus	*I"Tenor	*I"Altus	*I"Superius	*
*I'B	*I'T	*I'A	*I'S	*
*clefF4	*clefGv2	*clefGv2	*clefG2	*
*k[b-e-]	*k[b-e-]	*k[b-e-]	*k[b-e-]	*
*M2/2	*M2/2	*M2/2	*M2/2	*
*met(C|)	*met(C|)	*met(C|)	*met(C|)	*
=1	=1	=1	=1	=1
[1G	1r	1G	1r	.
=2	=2	=2	=2	=2
2G]	1r	2B-y	1r	.
4E-y	.	2B-y	.	.
4G	.	.	.	.
=3	=3	=3	=3	=3
1D	1r	1A	1r	.
=4	=4	=4	=4	=4
*	*lig	*lig	*	*
2GG	1G	2G	1r	.
*	*	*col	*	*
2GG	.	4.B-i	.	.
*	*	*Xlig	*	*
.	.	8c	.	.
*	*	*Xcol	*	*
=5	=5	=5	=5	=5
4G	1B-y	4d	1r	.
4E-y	.	4e-y	.	.
2G	.	4d	.	.
.	.	[4g	.	.
!!LO:LB:g=original
=6	=6	=6	=6	=6
4.D	1A	4g]	1r	.
.	.	8fL	.	.
8C	.	8e-yJ	.	.
2D	.	8fL	.	.
.	.	8e-y	.	.
.	.	8d	.	.
.	.	8cJ	.	.
*	*Xlig	*	*	*
=7	=7	=7	=7	=7
*	*lig	*	*	*
1GG	2G	4.B-y	1g	Au-
.	.	8c	.	.
.	[2B-y	[2d	.	.
=8	=8	=8	=8	=8
1G	4B-]	4d]	2b-y	-xi-
*	*Xlig	*	*	*
.	4A	4c	.	.
*	*lig	*	*	*
.	2B-y	4d	2b-y	-li-
.	.	4e-y	.	.
=9	=9	=9	=9	=9
*	*	*	*lig	*
2F	2c	1f	1a	-um
*	*col	*	*	*
2D	[2d	.	.	.
=10	=10	=10	=10	=10
1G	4d]	[1g	1d	.
*	*Xlig	*	*	*
.	4c	.	.	.
*	*Xcol	*	*	*
.	2d	.	.	.
*	*	*	*Xlig	*
!!LO:LB:g=original
=11	=11	=11	=11	=11
*lig	*lig	*	*	*
2C	2e-y	2g]	2r	.
*	*	*	*lig	*
2D	2d	4f	2f	pre-
.	.	[4d	.	.
*Xlig	*Xlig	*	*	*
=12	=12	=12	=12	=12
*lig	*lig	*	*	*
2G	2B-y	4d]	2g	.
.	.	4e-y	.	.
*	*	*	*Xlig	*
2F	2c	2f	2a	-sta
*Xlig	*Xlig	*	*	*
=13	=13	=13	=13	=13
*	*lig	*	*	*
2G	2B-y	4.d	2b-y	na-
.	.	8e-y	.	.
2D	[2d	2f	4a	.
.	.	.	4f	.
=14	=14	=14	=14	=14
2G	4d]	2B-y	2g	-tu-
*	*Xlig	*	*	*
.	4c	.	.	.
2D	2d	4f	2f	-ra
.	.	4d	.	.
=15	=15	=15	=15	=15
*	*lig	*	*	*
4C	2G	4e-y	2r	.
4E-y	.	2g	.	.
2D	2A	.	2a	vir-
.	.	4f#i	.	.
*	*Xlig	*	*	*
!!LO:LB:g=original
=16	=16	=16	=16	=16
2GG	2G	2g	2b-y	-tu-
2r	2r	4e-y	2cc	-ti-
.	.	[4f	.	.
=17	=17	=17	=17	=17
2D	1r	4f]	2dd	-bus
.	.	8e-yL	.	.
.	.	8dJ	.	.
2r	.	4e-y	4cc	.
.	.	4f	4a	.
=18	=18	=18	=18	=18
2.G	1r	4d	4b-y	.
.	.	4.B-y	2g	ha-
.	.	8G	.	.
4F	.	4c	4a	.
=19	=19	=19	=19	=19
2G	1r	4B-y	4g	-bun-
.	.	4G	8f#iL	.
.	.	.	8eniJ	.
2D	.	2A	2f#i	.
=20	=20	=20	=20	=20
4.GG	2r	2G	1g	-dat,
8AA	.	.	.	.
4BB-y	2G	4.d	.	.
4C	.	.	.	.
.	.	8e-y	.	.
!!LO:PB:g=original
=21	=21	=21	=21	=21
4.D	4F	4f	1r	.
.	4B-y	4d	.	.
8E-y	.	.	.	.
4F	4A	4c	.	.
[4G	[4d	[4B-y	.	.
=22	=22	=22	=22	=22
8GL]	4d]	8B-L]	1g	et
8F	.	8A	.	.
8E-y	8cL	8G	.	.
8DJ	8B-yJ	8FJ	.	.
2E-y	2c	2G	.	.
=23	=23	=23	=23	=23
1D	1d	2r	2b-y	mu-
.	.	4.A	[2a	.
.	.	8B-y	.	.
=24	=24	=24	=24	=24
1r	1r	4c	2a]	.
.	.	4.d	.	.
*	*	*	*lig	*
.	.	.	2f	-si-
.	.	8c	.	.
.	.	4d	.	.
=25	=25	=25	=25	=25
1r	1r	4B-y	2g	.
.	.	4e-y	.	.
.	.	4d	[2f	-ce
.	.	[4f	.	.
!!LO:LB:g=original
=26	=26	=26	=26	=26
1r	1r	8fL]	2f]	.
.	.	8e-y	.	.
.	.	8d	.	.
.	.	8cJ	.	.
.	.	4e-y	[2b-y	lau-
.	.	[4d	.	.
=27	=27	=27	=27	=27
1F	1r	4d]	2b-]	.
*	*	*	*Xlig	*
.	.	8cL	.	.
.	.	8B-yJ	.	.
.	.	2c	2a	-di-
=28	=28	=28	=28	=28
*	*col	*	*	*
2.BB-y	2.d	4B-y	1b-y	-bus
.	.	2B-y	.	.
4C	8cL	8AL	.	.
.	8B-yJ	8GJ	.	.
*	*Xcol	*	*	*
=29	=29	=29	=29	=29
2D	4A	4.F	1r	.
.	4B-y	.	.	.
.	.	8E-y	.	.
4C	4c	4G	.	.
4D	4A	4F	.	.
=30	=30	=30	=30	=30
*	*lig	*	*	*
4GG	1G	2G	1b-y	pre-
2BB-y	.	.	.	.
.	.	4d	.	.
4C	.	4e-y	.	.
!!LO:LB:g=original
=31	=31	=31	=31	=31
1D	1F	4.f	2a	-te-
.	.	8e-y	.	.
.	.	[2d	2f	-re-
=32	=32	=32	=32	=32
1G	1E-y	4d]	1g	-un-
.	.	8cL	.	.
.	.	8B-yJ	.	.
.	.	2c	.	.
=33	=33	=33	=33	=33
1A	1D	4d	2f	-ti-
.	.	8cL	.	.
.	.	8B-yJ	.	.
.	.	4A	[2d	-bus
.	.	4r	.	.
*	*Xlig	*	*	*
=34	=34	=34	=34	=34
2D	2d	2A	2d]	.
4E-y	4c	4G	[2g	tan-
[4G	4B-y	4d	.	.
=35	=35	=35	=35	=35
*	*lig	*	*	*
4G]	2G	4B-y	2g]	.
8FL	.	4c	.	.
8E-yJ	.	.	.	.
2D	2A	2d	2f	-tum
*	*Xlig	*	*	*
!!LO:LB:g=original
=36	=36	=36	=36	=36
*	*	*lig	*lig	*
2G	2G	2B-y	2g	per-
2F	2r	2c	2a	-lus-
*	*	*	*Xlig	*
=37	=37	=37	=37	=37
*	*	*col	*	*
1D	1r	2.d	1f	-trat.
*	*	*Xlig	*	*
.	.	8e-yL	.	.
.	.	8fJ	.	.
*	*	*Xcol	*	*
=38	=38	=38	=38	=38
2GG	2G	2g	1r	.
2r	[2B-y	4f	.	.
.	.	[4d	.	.
=39	=39	=39	=39	=39
2G	2B-]	4d]	1r	.
.	.	4g	.	.
2C	2c	4a	.	.
.	.	[4g	.	.
=40	=40	=40	=40	=40
*	*lig	*	*	*
1D	1A	4g]	1r	.
.	.	8f#iL	.	.
.	.	8eniJ	.	.
.	.	2f#i	.	.
!!LO:PB:g=original
=41	=41	=41	=41	=41
1GG	1G	4r	1r	.
.	.	2g	.	.
.	.	8fL	.	.
.	.	8e-yJ	.	.
*	*Xlig	*	*	*
=42	=42	=42	=42	=42
*	*lig	*	*	*
1r	2B-y	2d	1r	.
*	*	*lig	*	*
.	2A	[2c	.	.
*	*Xlig	*	*	*
=43	=43	=43	=43	=43
*	*lig	*	*	*
2r	2F	4c]	1r	.
.	.	2d	.	.
2GG	[2G	.	.	.
*	*	*Xlig	*	*
.	.	[4B-y	.	.
=44	=44	=44	=44	=44
1D	4G]	4B-]	1r	.
*	*Xlig	*	*	*
.	4F#i	8AL	.	.
.	.	8GJ	.	.
.	4F#i	2A	.	.
.	4Eni	.	.	.
=45	=45	=45	=45	=45
*lig	*	*	*	*
1GG	1G	4G	1r	.
.	.	4d	.	.
.	.	4e-y	.	.
.	.	[4d	.	.
!!LO:LB:g=original
=46	=46	=46	=46	=46
*	*	*	*lig	*
1D	1r	4d]	1f	Haec
.	.	8cL	.	.
.	.	8B-yJ	.	.
.	.	2A	.	.
*	*	*	*lig	*
*Xlig	*	*	*	*
=47	=47	=47	=47	=47
*	*	*lig	*	*
*	*	*	*col	*
1GG	2r	2G	2.g	.
.	2G	2B-y	.	.
*	*	*Xlig	*Xlig	*
.	.	.	4f	.
*	*	*	*Xcol	*
=48	=48	=48	=48	=48
1r	4A	4c	4eni	.
.	2F	2A	4d	.
.	.	.	[2d	to-
.	[4G	[4B-y	.	.
=49	=49	=49	=49	=49
*lig	*	*	*	*
2BB-y	8GL]	8B-L]	2d]	.
.	8FJ	8A	.	.
.	4D	8F	.	.
.	.	8GJ	.	.
2AA	2Eni	2A	2c#i	-ri-
*Xlig	*	*	*	*
=50	=50	=50	=50	=50
*lig	*	*lig	*	*
2BB-y	1D	2F	1d	-bus
2GG	.	2G	.	.
*Xlig	*	*Xlig	*	*
!!LO:LB:g=original
=51	=51	=51	=51	=51
2D	2r	4A	2r	.
.	.	4B-y	.	.
2r	2D	4A	2a	pro-
.	.	[4d	.	.
=52	=52	=52	=52	=52
*	*lig	*	*	*
1D	1F	4d]	2a	-lem
.	.	8cL	.	.
.	.	8B-yJ	.	.
.	.	2A	2a	na-
=53	=53	=53	=53	=53
*	*	*lig	*	*
1GG	1G	2G	2.b-y	-tu-
.	.	2B-y	.	.
*	*	*Xlig	*	*
.	.	.	4a	.
*	*Xlig	*	*	*
=54	=54	=54	=54	=54
*	*lig	*lig	*lig	*
2D	2A	2A	2f	.
2GG	2B-y	2G	2g	.
*	*Xlig	*Xlig	*Xlig	*
=55	=55	=55	=55	=55
*	*lig	*lig	*lig	*
2r	2c	2eni	2a	.
2D	2d	2f	[2f	.
*	*Xlig	*	*Xlig	*
!!LO:LB:g=original
=56	=56	=56	=56	=56
1C	1r	1g	4f]	.
.	.	.	8eniL	.
.	.	.	8dJ	.
.	.	.	2eni	.
*	*	*Xlig	*	*
=57	=57	=57	=57	=57
1D	1r	2f	1f	-ra
.	.	2d	.	.
=58	=58	=58	=58	=58
1r	1r	2e-y	2r	.
.	.	2f	2d	con-
=59	=59	=59	=59	=59
2r	1r	2g	2e-y	-tu-
2D	.	2d	2f	-lit
=60	=60	=60	=60	=60
*	*	*lig	*	*
2E-y	1r	2B-y	2g	si-
2F	.	2A	2d	-bi
*	*	*Xlig	*	*
!!LO:PB:g=original
=61	=61	=61	=61	=61
2G	1d	4B-y	2r	.
.	.	4.d	.	.
2D	.	.	2f	se-
.	.	8c	.	.
.	.	4d	.	.
=62	=62	=62	=62	=62
*lig	*	*	*	*
2C	2e-y	4G	2g	-qui-
.	.	4c	.	.
2D	2d	4A	2f	-tur
.	.	[4d	.	.
*Xlig	*	*	*	*
=63	=63	=63	=63	=63
2GG	1B-y	8dL]	2.b-y	pro-
.	.	8cJ	.	.
.	.	4d	.	.
2G	.	4r	.	.
.	.	[4G	4a	-spe-
=64	=64	=64	=64	=64
*lig	*lig	*	*	*
2E-y	2c	8GL]	2g	-re
.	.	8FJ	.	.
.	.	4G	.	.
2D	[2d	4A	2f	vir-
.	.	[4d	.	.
*Xlig	*	*	*	*
=65	=65	=65	=65	=65
2G	4d]	8dL]	2b-y	-tu-
*	*Xlig	*	*	*
.	.	8eniJ	.	.
.	4c	4g	.	.
*lig	*	*	*	*
2D	[2d	4f	4a	-tes
.	.	8gL	[4dd	al-
.	.	8aJ	.	.
!!LO:LB:g=original
=66	=66	=66	=66	=66
2G	2d]	4d	4dd]	.
.	.	2g	4cc	.
*Xlig	*lig	*	*	*
2A	2c	.	2a	-le-
.	.	4f#i	.	.
=67	=67	=67	=67	=67
*lig	*	*	*	*
1G	2d	4g	2b-y	-va-
.	.	4.d	.	.
*	*Xlig	*	*	*
.	2B-y	.	[2g	-tu-
.	.	8c	.	.
.	.	[4d	.	.
=68	=68	=68	=68	=68
1D	1A	8dL]	4g]	.
.	.	8cJ	.	.
.	.	4.d	8f#iL	.
.	.	.	8eniJ	.
.	.	.	2f#i	.
.	.	8c	.	.
.	.	4d	.	.
*Xlig	*	*	*	*
=69	=69	=69	=69	=69
[1GGl	[1Gl	2.B-y	[1gl	-ri.
.	.	4c	.	.
=70	=70	=70	=70	=70
1GG]	1G]	1dl	1g]	.
==	==	==	==	==
*-	*-	*-	*-	*-
!!!system-decoration: [*]
!!!RDF**kern: j = editorial accidental, optional, paren up
!!!RDF**kern: i = editorial accidental
!!!RDF**kern: l = terminal breve
!!!PTL: Gaspar van Weerbeke: Collected Works. V. Settings of Liturgical Texts, Songs, and Instrumental Works
!!!ISBN: 978-1-59551-544-5
!!!PPR: American Institute of Musicology
!!!PC#: Corpus Mensurabilis Musicae 106/V
!!!PDT: 2020
!!!PED: Kolb, Paul
!!!YEC: Copyright 2018, Kolb, Paul
!!!YEM: CC-BY-NC 4.0 (https://creativecommons.org/licenses/by-nc/4.0/legalcode)
!!!EED: Zybina, Karina
!!!EEV: 2021/08/26
